!!!COM: Haydn, Franz Joseph
!!!OTL: String Quartet in B Minor
!!!OPS: Opus 33
!!!ONM: No. 1
!!!OMD: Presto
!!!OMV: 4
!!!SCT: H III:37
!!!SCA: Thematisch-bibliographisches Werkevererzeichnis (A. van Hoboken)
!!!YOR: Trautwein Edition
!!!ENC: Frances Bennion
!!!CDT: 1732/3/31/-1809/5/31/
!!!CNT: Oesterreich
!!!YEC: Copyright (c) 1994, 2000 Center for Computer Assisted Research in the Humanities
!!!YEM: Rights to all derivative editions reserved.
!!!YEM: Refer to licensing agreement for further details.
!!!YEN: United States of America
**kern	**kern	**kern	**kern
*k[f#c#]	*k[f#c#]	*k[f#c#]	*k[f#c#]
*b:	*b:	*b:	*b:
*clefF4	*clefC3	*clefG	*clefG
*M2/4	*M2/4	*M2/4	*M2/4
4r	4r	4r	4r
4r	4r	4r	8B
.	.	.	8B
=1	=1	=1	=1
4BB	8r	8r	8B
.	8B	8d	8d
4r	8B	8d	8f#
.	8B	8d	8f#
=2	=2	=2	=2
4BB	8r	8r	4f#
.	8B	8d	.
4r	8B	8d	8B
.	8B	8d	8B
=3	=3	=3	=3
4BB	8r	8r	8B
.	8G	8e	8e
4r	8G	8e	8g
.	8G	8e	8g
=4	=4	=4	=4
4BB	8r	8r	4g
.	8G	8e	.
4r	8G	8e	8A#
.	8G	8e	8A#
=5	=5	=5	=5
4AA#	8r	8r	8A#
.	8F#	8c#	8c#
4r	8F#	8c#	8f#
.	8F#	8c#	8e
=6	=6	=6	=6
4BB	8r	8r	4d
.	8F#	8B	.
4F#	8r	8r	4c#
.	8F#	8A#	.
=7	=7	=7	=7
8DD	2F#	[2B	4.B
8D	.	.	.
8D	.	.	.
8D	.	.	8d
=8	=8	=8	=8
8EE	2G	2B_	4d
8E	.	.	.
8E	.	.	8c#
8E	.	.	8e
=9	=9	=9	=9
8FF#	2A	2B_	4e
8F#	.	.	.
8F#	.	.	8d#
8F#	.	.	8f#
=10	=10	=10	=10
8GG	8B	4B]	8.e
8GG	8e	.	.
.	.	.	16f#
8E	8c#	4A#	8g
8E	8c#	.	8g
=11	=11	=11	=11
8D	8B	8B	8f#
8D	8D	8f#	8B
8E	8E	8e	8c#
8F#	8F#	16d	16B
.	.	16c#	16A#
=12	=12	=12	=12
8BB	4B	4B	4B
8BB	.	.	.
8D	4r	4r	4r
8F#	.	.	.
=13	=13	=13	=13
4BB	4b 4d	4f# 4dd	16d
.	.	.	16b
.	.	.	16ff#
.	.	.	16gg
4r	4r	4r	16ff#
.	.	.	16bb
.	.	.	16aa
.	.	.	16gg
=14	=14	=14	=14
2r	8r	8r	8ff#
.	8B	8d	16dd
.	.	.	16ff#
.	8c#	8e	16cc#
.	.	.	16ff#
.	8d	8f#	16b
.	.	.	16ff#
=15	=15	=15	=15
4F#	4c#	4A# 4f#	16a#
.	.	.	16cc#
.	.	.	16ff#
.	.	.	16gg
4r	4r	4r	16ff#
.	.	.	16ccc#
.	.	.	16aa#
.	.	.	16gg#
=16	=16	=16	=16
2r	2r	8r	8ff#
.	.	8cc#	16ee
.	.	.	16ff#
.	.	8b	16dd
.	.	.	16ff#
.	.	8a#	16cc#
.	.	.	16ff#
=17	=17	=17	=17
4BB	4f#	4B 4d 4b	16d
.	.	.	16b
.	.	.	16ff#
.	.	.	16gg
4r	4r	4r	16ff#
.	.	.	16bb
.	.	.	16aa
.	.	.	16gg
=18	=18	=18	=18
2r	8r	8r	8ff#
.	8B	8d	16dd
.	.	.	16ff#
.	8c#	8e	16cc#
.	.	.	16ff#
.	8d	8f#	16b
.	.	.	16ff#
=19	=19	=19	=19
4F#	4c#	4A# 4f#	16a#
.	.	.	16cc#
.	.	.	16ff#
.	.	.	16gg
4r	4r	4r	16ff#
.	.	.	16ccc#
.	.	.	16aa#
.	.	.	16gg#
=20	=20	=20	=20
2r	2r	8r	8ff#
.	.	8cc#	16ee
.	.	.	16ff#
.	.	8b	16dd
.	.	.	16ff#
.	.	8a#	16cc#
.	.	.	16ff#
=21	=21	=21	=21
4BB	4f#	4b 4B 4d	16d
.	.	.	16b
.	.	.	16ff#
.	.	.	16gg
4r	4r	4r	16ff#
.	.	.	16bb
.	.	.	16aa
.	.	.	16gg
=22	=22	=22	=22
2r	8r	8r	8ff#
.	8d	8f#	16b
.	.	.	16ff#
.	8c#	8e	16cc#
.	.	.	16ff#
.	8B	8d	16dd
.	.	.	16ff#
=23	=23	=23	=23
4E	4e 4G	4g 4B	16e
.	.	.	16b
.	.	.	16gg
.	.	.	16aa
4r	4r	4r	16gg
.	.	.	16bb
.	.	.	16gg
.	.	.	16ff#
=24	=24	=24	=24
2r	8r	8r	8ee
.	8g	8b	16e
.	.	.	16b
.	8f#	8a	16f#
.	.	.	16b
.	8e	8g	16g
.	.	.	16b
=25	=25	=25	=25
4A	4g	4c# 4e	16A
.	.	.	16c#
.	.	.	16e
.	.	.	16a
4r	4r	4r	16cc#
.	.	.	16ee
.	.	.	16cc#
.	.	.	16b
=26	=26	=26	=26
2r	2r	8r	8a
.	.	8c#	16e
.	.	.	16a
.	.	8d	16f#
.	.	.	16a
.	.	8e	16g
.	.	.	16a
=27	=27	=27	=27
4D	4A	4f#	16d
.	.	.	16f#
.	.	.	16a
.	.	.	16dd
4r	4r	4r	16ff#
.	.	.	16aa
.	.	.	16ff#
.	.	.	16ee
=28	=28	=28	=28
8r	8r	8r	8dd
8F#	8A	8dd	16d
.	.	.	16a
8E	8G	8dd	16e
.	.	.	16a
8D	8F#	8dd	16f#
.	.	.	16a
=29	=29	=29	=29
4E	4G	4cc#	16e
.	.	.	16g
.	.	.	16cc#
.	.	.	16ee
4r	4r	4r	16gg
.	.	.	16bb
.	.	.	16gg
.	.	.	16ff#
=30	=30	=30	=30
8r	2r	2r	8ee
8c#	.	.	16e
.	.	.	16a
8d	.	.	16f#
.	.	.	16a
8e	.	.	16g
.	.	.	16a
=31	=31	=31	=31
8d	2f#	[2dd	16f#
.	.	.	16d
8d	.	.	16e
.	.	.	16f#
8d	.	.	16g
.	.	.	16a
8d	.	.	16b
.	.	.	16cc#
=32	=32	=32	=32
8F#	2a	2dd_	16dd
.	.	.	16ee
8F#	.	.	16ff#
.	.	.	16gg
8F#	.	.	16aa
.	.	.	16bb
8F#	.	.	16ccc#
.	.	.	16ddd
=33	=33	=33	=33
8G	[2b	2dd_	8ddd
8G	.	.	8bb
8G	.	.	[4bb
8G	.	.	.
=34	=34	=34	=34
8G	2b]	2dd_	8bb]
8G	.	.	8bb
8G	.	.	8ccc#
8G	.	.	8ddd
=35	=35	=35	=35
8F#	[2a	2dd_	8ddd
8F#	.	.	8aa
8F#	.	.	[4aa
8F#	.	.	.
=36	=36	=36	=36
8F#	2a]	2dd_	8aa]
8F#	.	.	8fff#
8F#	.	.	8ddd
8F#	.	.	8bb
=37	=37	=37	=37
8E	[2b	2dd_	8aa
8E	.	.	8gg#
8E	.	.	[4gg#
8E	.	.	.
=38	=38	=38	=38
8E	2b]	2dd]	8gg#]
8E	.	.	16ee
.	.	.	16gg#
8E	.	.	16ee
.	.	.	16gg#
8E	.	.	16ee
.	.	.	16gg#
=39	=39	=39	=39
8E	8a	8cc#	8eee
8E	16a	16cc#	8gg
.	16cc#	16a	.
8E	16a	16cc#	[4gg
.	16cc#	16a	.
8E	16a	16cc#	.
.	16cc#	16a	.
=40	=40	=40	=40
8E	[2a	2cc#	8gg]
8E	.	.	16ee
.	.	.	16gg
8E	.	.	16ee
.	.	.	16gg
8E	.	.	16ee
.	.	.	16gg
=41	=41	=41	=41
8C#	8a]	8gg	8eee
8C#	16e	16g	8a
.	16g	16e	.
8C#	16e	16g	[4a
.	16g	16e	.
8C#	16e	16g	.
.	16g	16e	.
=42	=42	=42	=42
8C#	2e	4.g	8a]
8C#	.	.	8ee
8C#	.	.	8cc#
8C#	.	8e	8g
=43	=43	=43	=43
4D	2A	4f#	8f#
.	.	.	8dd
4F#	.	[4d	8dd
.	.	.	8dd
=44	=44	=44	=44
2G	4B	4d]	8b
.	.	.	8bb
.	4d	4e#	8bb
.	.	.	8bb
=45	=45	=45	=45
8A	8d	8f#	2a
8A	8d	8f#	.
8A	8d	8f#	.
8A	8d	8f#	.
=46	=46	=46	=46
8AA	8c#	8g	2ee
8AA	8c#	8g	.
8AA	8c#	8g	.
8AA	8c#	8g	.
=47	=47	=47	=47
4D	4d	4f#	8dd
.	.	.	8dd
4F#	4A	[4d	8dd
.	.	.	8dd
=48	=48	=48	=48
2G	4B	4d]	8b
.	.	.	8ddd
.	4b	4e#	8ddd
.	.	.	8ddd
=49	=49	=49	=49
8A	8d	8f#	2a
8A	8d	8f#	.
8A	8d	8f#	.
8A	8d	8f#	.
=50	=50	=50	=50
8AA	8c#	8g	2ee
8AA	8c#	8g	.
8AA	8c#	8g	.
8AA	8c#	8g	.
=51	=51	=51	=51
8D	4d	4f#	4dd
8DD	.	.	.
8DD	4r	8r	8r
8r	.	8dd	8ff#
=52	=52	=52	=52
8r	8r	8dd	8ff#
8G	8B	8ee	8gg
8G	8B	8r	8r
8A	8c#	8cc#	8ee
=53	=53	=53	=53
8r	8r	8cc#	8ee
8F#	8A	8dd	8ff#
8F#	8A	8r	8r
8G	8B	8b	8dd
=54	=54	=54	=54
8E	8B	8g	8ee
8E	8B	8g	8ee
8A	8G	8e	8cc#
8A	8G	8e	8cc#
=55	=55	=55	=55
8D	4F#	4f#	4dd
8d	.	.	.
4D	4r	8r	8r
.	.	8dd	8ff#
=56	=56	=56	=56
8r	8r	8dd	8ff#
8G	8b	8b	8bb
8G	8b	8r	8r
8E	8ee	8cc#	8ee
=57	=57	=57	=57
8r	8r	8cc#	8ee
8F#	8a	8a	8aa
8F#	8a	8r	8r
8D	8dd	8dd	8ff#
=58	=58	=58	=58
8G	8g	8b	8ee
8G	8g	8b	8ee
8A	8e	8g	8cc#
8A	8e	8g	8cc#
=59	=59	=59	=59
4D	8d	4f#	16dd
.	.	.	16a
.	8d	.	16f#
.	.	.	16a
4r	8c#	4r	16g
.	.	.	16a
.	8c#	.	16g
.	.	.	16a
=60	=60	=60	=60
2r	8d	4r	16f#
.	.	.	16a
.	8d	.	16f#
.	.	.	16a
.	4r	8cc#	16e
.	.	.	16a
.	.	8cc#	16e
.	.	.	16a
=61	=61	=61	=61
4r	2r	8dd	16f#
.	.	.	16a
.	.	8dd	16f#
.	.	.	16a
8c#	.	4r	16g
.	.	.	16a
8c#	.	.	16g
.	.	.	16a
=62	=62	=62	=62
8d	4r	4r	16f#
.	.	.	16a
8d	.	.	16f#
.	.	.	16a
8AA	8g 8A	8ccc#	16e
.	.	.	16a
8AA	8g 8A	8ccc#	16e
.	.	.	16a
=63	=63	=63	=63
4DD	4f# 4A	4ddd	4d
4r	4r	4r	8dd
.	.	.	8dd
=64	=64	=64	=64
2r	2r	4r	8dd
.	.	.	8ff#
.	.	8d	8aa
.	.	8d	8aa
=65	=65	=65	=65
2r	2r	8d	4aa
.	.	8f#	.
.	.	8a	8cc
.	.	8a	8cc
=66	=66	=66	=66
2r	2r	4a	8cc
.	.	.	8ff#
.	.	8c	8aa
.	.	8c	8aa
=67	=67	=67	=67
2r	2r	8c	4aa
.	.	8f#	.
.	.	8a	8b
.	.	8a	8b
=68	=68	=68	=68
2r	2r	4a	8b
.	.	.	8dd#
.	.	8B	8ff#
.	.	8B	8aa
=69	=69	=69	=69
2r	2r	8B	4aa
.	.	8d#	.
.	.	8f#	8dd#
.	.	8a	8dd#
=70	=70	=70	=70
4r	4r	8a	8dd#
.	.	8dd#	8ff#
8A	8d#	8ff#	8aa
8A	8d#	8aa	8ccc
=71	=71	=71	=71
8A	8d#	2aa	2ccc
8d#	8f#	.	.
8f#	8a	.	.
8f#	8a	.	.
=72	=72	=72	=72
2f#	2a	[2b	2dd#
=73	=73	=73	=73
8e	8g	4b]	16e
.	.	.	16g
8E	8e	.	16b
.	.	.	16ee
8E	8B	4r	16gg
.	.	.	16bb
8E	8e	.	16gg
.	.	.	16ff#
=74	=74	=74	=74
8E	8g	16e	4ee
.	.	16g	.
8E	8e	16b	.
.	.	16ee	.
8E	8B	16gg	4r
.	.	16bb	.
8E	8e	16gg	.
.	.	16ee	.
=75	=75	=75	=75
8F#	8a	4dd#	16a
.	.	.	16b
8F#	8d#	.	16dd#
.	.	.	16ff#
8F#	8B	4r	16aa
.	.	.	16ff#
8F#	8d#	.	16dd#
.	.	.	16b
=76	=76	=76	=76
8F#	8a	16a	4a
.	.	16b	.
8F#	8d#	16dd#	.
.	.	16ff#	.
8F#	8B	16aa	4r
.	.	16ff#	.
8F#	8d#	16dd#	.
.	.	16b	.
=77	=77	=77	=77
8D#	8a	4a	16a
.	.	.	16b
8D#	8f#	.	16dd#
.	.	.	16ff#
8D#	8B	4r	16aa
.	.	.	16ccc
8D#	8f#	.	16aa
.	.	.	16gg
=78	=78	=78	=78
8D#	8a	16a	4ff#
.	.	16b	.
8D#	8f#	16dd#	.
.	.	16ff#	.
8D#	8B	16aa	4r
.	.	16ccc	.
8D#	8f#	16aa	.
.	.	16ff#	.
=79	=79	=79	=79
8E	8g	4gg	16e
.	.	.	16g
8E	8e	.	16b
.	.	.	16ee
8E	8B	4r	16gg
.	.	.	16bb
8E	8e	.	16gg
.	.	.	16ff#
=80	=80	=80	=80
8E	8g	16e	4ee
.	.	16g	.
8E	8e	16b	.
.	.	16ee	.
8E	8B	16gg	4r
.	.	16bb	.
8E	8e	16gg	.
.	.	16ff#	.
=81	=81	=81	=81
8D	8g#	4ee	16d
.	.	.	16e
8D	8e	.	16g#
.	.	.	16b
8D	8B	4r	16dd
.	.	.	16ee
8D	8e	.	16gg#
.	.	.	16bb
=82	=82	=82	=82
8D	8g#	16d	4gg#
.	.	16e	.
8D	8e	16g#	.
.	.	16b	.
8D	8B	16dd	4r
.	.	16ee	.
8D	8e	16gg#	.
.	.	16bb	.
=83	=83	=83	=83
8C#	8a	4aa	16a
.	.	.	16cc#
8C#	8e	.	16ee
.	.	.	16aa
8C#	8A	4r	16ccc#
.	.	.	16eee
8C#	8e	.	16ccc#
.	.	.	16aa
=84	=84	=84	=84
8C#	8a	16a	4a
.	.	16cc#	.
8C#	8e	16ee	.
.	.	16aa	.
8C#	8A	16ccc#	4r
.	.	16eee	.
8C#	8e	16ccc#	.
.	.	16aa	.
=85	=85	=85	=85
8C#	8g	4a	16a
.	.	.	16cc#
8C#	8e	.	16ee
.	.	.	16aa
8C#	8A	4r	16ccc#
.	.	.	16eee
8C#	8e	.	16ccc#
.	.	.	16aa
=86	=86	=86	=86
8C#	4g	16c#	8gg
.	.	16e	.
8C#	.	16g	8ee
.	.	16a	.
8C#	4r	16cc#	8cc#
.	.	16ee	.
8C#	.	16cc#	8a
.	.	16a	.
=87	=87	=87	=87
16AA	16c#	8g	[2g
16C#	16e	.	.
16E	16g	8e	.
16G	16a	.	.
16A	16cc#	8e	.
16G	16ee	.	.
16E	16cc#	8e	.
16C#	16a	.	.
=88	=88	=88	=88
8AA	8e	[2e	2g_
8AA	8c#	.	.
8AA	8c#	.	.
8AA	8c#	.	.
=89	=89	=89	=89
4AA	4c#	4e]	4g]
8D	4r	4r	4r
8D	.	.	.
=90	=90	=90	=90
8D	2r	4r	4r
8F#	.	.	.
8A	.	8f#	8dd
8A	.	8f#	8dd
=91	=91	=91	=91
4A	2r	8f#	8dd
.	.	8e	8cc#
8A	.	4r	4r
8A	.	.	.
=92	=92	=92	=92
8A	2r	4r	4r
8c#	.	.	.
8e	.	8g	8cc#
8e	.	8g	8cc#
=93	=93	=93	=93
8e	4r	8g	8cc#
8d	.	8f#	8dd
4r	8d	4r	4r
.	8d	.	.
=94	=94	=94	=94
2r	8d	4r	4r
.	8f#	.	.
.	8a	8ff#	8ddd
.	8a	8ff#	8ddd
=95	=95	=95	=95
2r	4a	8ff#	8ddd
.	.	8ee	8ccc#
.	8a	4r	4r
.	8a	.	.
=96	=96	=96	=96
2r	8a	4r	4r
.	8cc#	.	.
.	8ee	8gg	8ccc#
.	8ee	8gg	8ccc#
=97	=97	=97	=97
2r	8ee	8gg	8ccc#
.	8dd	8ff#	8ddd
.	8dd	8ff	8gg#
.	8dd	8ff	8gg#
=98	=98	=98	=98
2r	8dd	8ff	8gg#
.	8cc#	8ee	8aa
.	8cc	8ee-	8ff#
.	8cc	8ee-	8ff#
=99	=99	=99	=99
2r	8cc	8dd#	8ff#
.	8b	8dd	8gg
.	8b	8dd	8ee#
.	8b	8dd	8ee#
=100	=100	=100	=100
2r	8b	8dd	8ee#
.	8a#	8cc#	8ff#
.	8a	8cc	8dd#
.	8a	8cc	8dd#
=101	=101	=101	=101
2r	8a	8cc	8dd#
.	8g	8b	8ee
.	4r	4r	4r
=102	=102	=102	=102
4r	2r	4r	4r
8e	.	8a#	8gg
8e	.	8a#	8gg
=103	=103	=103	=103
8e	4r	8a#	8gg
8d	.	8b	8ff#
4r	8g	8b	8ee
.	8g	8b	8ee
=104	=104	=104	=104
4r	8g	4b	8ee
.	8f#	.	8dd
8e	4r	8a#	8gg
8e	.	8a#	8gg
=105	=105	=105	=105
8e	4r	8a#	8gg
8d	.	8b	8ff#
8d	8F#	8f#	8ff#
8d	8F#	8f#	8ff#
=106	=106	=106	=106
8d	[2F#	[2f#	8ff#
8c#	.	.	8ee
8c#	.	.	8ee
8B	.	.	8dd
=107	=107	=107	=107
8B	4F#]	4f#]	8dd
8A#	.	.	8cc#
8F#	8f#	8f#	8f#
8F#	8f#	8f#	8f#
=108	=108	=108	=108
8F#	8f#	8f#	8f#
8D	8d	8d	8d
8D	8d	8d	8d
8BB	8B	8B	8B
=109	=109	=109	=109
4F#	4f#	4f#	4f#
4r	4r	4r	8B
.	.	.	8B
=110	=110	=110	=110
4BB	8r	8r	8B
.	8B	8d	8d
4r	8B	8d	8f#
.	8B	8d	8f#
=111	=111	=111	=111
4BB	8r	8r	4f#
.	8B	8d	.
4r	8B	8d	8B
.	8B	8d	8B
=112	=112	=112	=112
4BB	8r	8r	8B
.	8G	8e	8e
4r	8G	8e	8g
.	8G	8e	8g
=113	=113	=113	=113
4BB	8r	8r	4g
.	8G	8e	.
4r	8G	8e	8A#
.	8G	8e	8A#
=114	=114	=114	=114
4AA#	8r	8r	8A#
.	8F#	8c#	8c#
4r	8F#	8c#	8f#
.	8F#	8c#	8e
=115	=115	=115	=115
4BB	8r	8r	4d
.	8F#	8B	.
4F#	8r	8r	4c#
.	8F#	8A#	.
=116	=116	=116	=116
8DD	2F#	[2B	4.B
8D	.	.	.
8D	.	.	.
8D	.	.	8d
=117	=117	=117	=117
8EE	2G	2B_	4d
8E	.	.	.
8E	.	.	8c#
8E	.	.	8e
=118	=118	=118	=118
8FF#	2A	2B_	4e
8F#	.	.	.
8F#	.	.	8d#
8F#	.	.	8f#
=119	=119	=119	=119
[2GG	[2B	2B_	2f#
=120	=120	=120	=120
4GG]	4B]	4B]	4e
4r	4r	4r	4r
=121	=121	=121	=121
2r	4.r	4.r	2r
.	8B	8g	.
=122	=122	=122	=122
8DD	4B	4g	4.r
8D	.	.	.
8D	8A	8f#	.
8D	8c	8r	8a
=123	=123	=123	=123
8GG	4c	4.r	4a
8G	.	.	.
8G	8B	.	8g
8G	8d	8b	8r
=124	=124	=124	=124
8FF#	4d	4b	4.r
8F#	.	.	.
8F#	8c#	8a#	.
8F#	8e	8r	8cc#
=125	=125	=125	=125
8BB	4e	4.r	4cc#
8B	.	.	.
8B	8d	.	8b
8B	8f#	8dd	8r
=126	=126	=126	=126
8AA	4f#	4dd	4.r
8A	.	.	.
8A	8e	8cc#	.
8A	8g	8r	8ee
=127	=127	=127	=127
8D	4g	4.r	4ee
8d	.	.	.
8d	8f#	.	8dd
8d	8a	8ff#	8r
=128	=128	=128	=128
8C#	4a	4ff#	4.r
8c#	.	.	.
8c#	8g#	8ee#	.
8c#	8b	8r	8gg#
=129	=129	=129	=129
[2c#	2b	2r	2gg#
=130	=130	=130	=130
2c#_	4a	2r	4ff#
.	4g#	.	4ee#
=131	=131	=131	=131
2c#_	2g#	2r	2ee#
=132	=132	=132	=132
4c#]	4a	4r	4ff#
4c#	4g	4c#	4ee
=133	=133	=133	=133
2c#	[2g	2c#	2ee
=134	=134	=134	=134
4B	4g]	4d	4dd
4A#	4g	4e	4cc#
=135	=135	=135	=135
[2A#	[2g	[2e	[2cc#
=136	=136	=136	=136
2A#]	2g]	2e]	2cc#]
=137	=137	=137	=137
4B	4f#	4B 4d	16d
.	.	.	16b
.	.	.	16ff#
.	.	.	16gg
4r	4r	4r	16ff#
.	.	.	16bb
.	.	.	16aa
.	.	.	16gg
=138	=138	=138	=138
2r	8r	8r	8ff#
.	8B	8d	16dd
.	.	.	16ff#
.	8c#	8e	16cc#
.	.	.	16ff#
.	8d	8f#	16b
.	.	.	16ff#
=139	=139	=139	=139
4F#	4c#	4A# 4f#	16a#
.	.	.	16cc#
.	.	.	16ff#
.	.	.	16gg
4r	4r	4r	16ff#
.	.	.	16ccc#
.	.	.	16aa#
.	.	.	16gg#
=140	=140	=140	=140
2r	2r	8r	8ff#
.	.	8cc#	16ee
.	.	.	16ff#
.	.	8b	16dd
.	.	.	16ff#
.	.	8a#	16cc#
.	.	.	16ff#
=141	=141	=141	=141
4BB	4f#	4B 4b 4d	16d
.	.	.	16b
.	.	.	16ff#
.	.	.	16gg
4r	4r	4r	16ff#
.	.	.	16bb
.	.	.	16aa
.	.	.	16gg
=142	=142	=142	=142
2r	8r	8r	8ff#
.	8B	8d	16dd
.	.	.	16ff#
.	8c#	8e	16cc#
.	.	.	16ff#
.	8d	8f#	16b
.	.	.	16ff#
=143	=143	=143	=143
4F#	4c#	4A# 4f#	16a#
.	.	.	16cc#
.	.	.	16ff#
.	.	.	16gg
4r	4r	4r	16ff#
.	.	.	16ccc#
.	.	.	16aa#
.	.	.	16gg#
=144	=144	=144	=144
2r	2r	8r	8ff#
.	.	8cc#	16ee
.	.	.	16ff#
.	.	8b	16dd
.	.	.	16ff#
.	.	8a#	16cc#
.	.	.	16ff#
=145	=145	=145	=145
4BB	4f#	4d 4B 4b	16d
.	.	.	16b
.	.	.	16ff#
.	.	.	16gg
4r	4r	4r	16ff#
.	.	.	16bb
.	.	.	16aa
.	.	.	16gg
=146	=146	=146	=146
2r	8r	8r	8ff#
.	8d	8f#	16b
.	.	.	16ff#
.	8c#	8e	16cc#
.	.	.	16ff#
.	8B	8d	16dd
.	.	.	16ff#
=147	=147	=147	=147
4E	4e 4G	4g 4B	16e
.	.	.	16b
.	.	.	16gg
.	.	.	16aa
4r	4r	4r	16gg
.	.	.	16bb
.	.	.	16gg
.	.	.	16ff#
=148	=148	=148	=148
2r	8r	8r	8ee
.	8g	8b	16e
.	.	.	16b
.	8f#	8a	16f#
.	.	.	16b
.	8e	8g	16g
.	.	.	16b
=149	=149	=149	=149
4E#	4g#	4cc#	16e#
.	.	.	16cc#
.	.	.	16gg#
.	.	.	16aa
4r	4r	4r	16gg#
.	.	.	16bb
.	.	.	16gg#
.	.	.	16ff#
=150	=150	=150	=150
2r	2r	8r	8ee#
.	.	8c#	16e#
.	.	.	16cc#
.	.	8d#	16f#
.	.	.	16cc#
.	.	8e#	16g#
.	.	.	16cc#
=151	=151	=151	=151
[2F#	4f#	4f#	16a#
.	.	.	16cc#
.	.	.	16ff#
.	.	.	16ff#
.	8f#	8dd	16ff#
.	.	.	16ff#
.	8f#	8dd	16ff#
.	.	.	16ff#
=152	=152	=152	=152
2F#_	8a#	8cc#	16ee
.	.	.	16ff#
.	8a#	8cc#	16ee
.	.	.	16ff#
.	8b	8b	16dd
.	.	.	16ff#
.	8b	8b	16dd
.	.	.	16ff#
=153	=153	=153	=153
2F#_	8f#	8a#	16cc#
.	.	.	16ff#
.	8f#	8a#	16cc#
.	.	.	16ff#
.	8b	8f#	16dd
.	.	.	16ff#
.	8b	8f#	16dd
.	.	.	16ff#
=154	=154	=154	=154
2F#_	8cc#	8A#	16ee
.	.	.	16ff#
.	8cc#	8A#	16ee
.	.	.	16ff#
.	8b	8B	16dd
.	.	.	16ff#
.	8b	8B	16dd
.	.	.	16ff#
=155	=155	=155	=155
8F#]	8a#	8f#	16cc#
.	.	.	16f#
8F#	8a#	8cc#	16g#
.	.	.	16a#
8F#	8a#	8cc#	16b
.	.	.	16cc#
8F#	8a#	8cc#	16dd#
.	.	.	16ee#
=156	=156	=156	=156
8E	8a#	8cc#	16ff#
.	.	.	16gg#
8E	8a#	8cc#	16aa#
.	.	.	16bb
8E	8a#	8cc#	8ccc#
8E	8a#	8cc#	8aa#
=157	=157	=157	=157
8D	8f#	8b	8bb
8D	8f#	8b	8bb
8D	8f#	8b	[4bb
8D	8f#	8b	.
=158	=158	=158	=158
8D	8f#	8b	8bb]
8D	8f#	8b	8ddd
8D	8f#	8b	8bb
8D	8f#	8b	8gg
=159	=159	=159	=159
8C#	8g	8b	8ff#
8C#	8g	8b	8ee
8C#	8g	8b	[4ee
8C#	8g	8b	.
=160	=160	=160	=160
8C#	[2g	[2b	8ee]
8C#	.	.	8eee
8C#	.	.	8eee
8C#	.	.	8eee
=161	=161	=161	=161
8C#	8g]	8b]	8eee
8C#	16g	8b	8gg
.	16e	.	.
8C#	16g	8b	[4gg
.	16e	.	.
8C#	16g	8b	.
.	16e	.	.
=162	=162	=162	=162
8C#	[2g	2b	8gg]
8C#	.	.	16ee
.	.	.	16gg
8C#	.	.	16ee
.	.	.	16gg
8C#	.	.	16ee
.	.	.	16gg
=163	=163	=163	=163
8C#	8g]	[2a#	8eee
8C#	16g	.	8gg
.	16e	.	.
8C#	16g	.	[4gg
.	16e	.	.
8C#	16g	.	.
.	16e	.	.
=164	=164	=164	=164
8C#	2g	8a#]	8gg]
8C#	.	8a#	16ee
.	.	.	16gg
8C#	.	8a#	16ee
.	.	.	16gg
8C#	.	8a#	16ee
.	.	.	16gg
=165	=165	=165	=165
8AA#	8f#	8cc#	8eee
8AA#	8f#	8cc#	8aa#
8AA#	8f#	8cc#	[4aa#
8AA#	8f#	8cc#	.
=166	=166	=166	=166
8AA#	8f#	8cc#	8aa#]
8AA#	8f#	8cc#	8ccc#
8AA#	8f#	8cc#	8aa#
8AA#	8f#	8cc#	8ee
=167	=167	=167	=167
4BB	2f#	4dd	8dd
.	.	.	8bb
4D	.	[4b	8bb
.	.	.	8bb
=168	=168	=168	=168
2E	4g	4b]	8gg
.	.	.	8ee
.	[4b	4cc#	8ee
.	.	.	8ee
=169	=169	=169	=169
8F#	8b]	8dd	2f#
8F#	8b	8dd	.
8F#	8b	8dd	.
8F#	8b	8dd	.
=170	=170	=170	=170
8F#	8e	8a#	2cc#
8F#	8e	8a#	.
8F#	8e	8a#	.
8F#	8e	8a#	.
=171	=171	=171	=171
2G	[2d	8b	8b
.	.	8d	8b
.	.	8d	8b
.	.	8d	8b
=172	=172	=172	=172
2GG	2d_	8e#	8g
.	.	8e#	8bb
.	.	8e#	8bb
.	.	8e#	8bb
=173	=173	=173	=173
8FF#	8d]	8f#	2f#
8FF#	8d	8b	.
8FF#	8d	8b	.
8FF#	8d	8b	.
=174	=174	=174	=174
8FF#	8e	8a#	2cc#
8FF#	8e	8a#	.
8FF#	8e	8a#	.
8FF#	8e	8a#	.
=175	=175	=175	=175
8BB	4d	4b	4b
8B	.	.	.
8BB	4r	8r	8r
8r	.	8dd	8ff#
=176	=176	=176	=176
8r	8r	8dd	8ff#
8G	8B	8ee	8gg
8G	8B	8r	8r
8A	8c#	8cc#	8ee
=177	=177	=177	=177
8r	8r	8cc#	8ee
8F#	8A#	8dd	8ff#
8F#	8A#	8r	8r
8G	8B	8b	8dd
=178	=178	=178	=178
8E	8g	8e	8cc#
8E	8g	8e	8cc#
8F#	8e	8c#	8a#
8F#	8e	8c#	8a#
=179	=179	=179	=179
4BB	4d	8B	8b
.	.	4.r	8r
4r	4r	.	8B
.	.	.	8B
=180	=180	=180	=180
4BB	8r	8r	8B
.	8B	8d	8d
4r	8B	8d	8f#
.	8B	8d	8f#
=181	=181	=181	=181
4BB	8r	8r	4f#
.	8B	8d	.
4r	8B	8d	8B
.	8B	8d	8B
=182	=182	=182	=182
4EE#	8r	8r	8B
.	8B	8d	8d
8EE#	8B	8d	8g#
8EE#	8B	8d	8g#
=183	=183	=183	=183
4EE#	4B	4d	4g#
4r	4r	8d	8B
.	.	8d	8B
=184	=184	=184	=184
2FF#	2F#	8d	8B
.	.	8f#	8d
.	.	8e	8c#
.	.	8c#	8A#
=185	=185	=185	=185
4BB	8B	4B	4B
.	8B	.	.
4r	8A#	4r	16f#
.	.	.	16ee
.	8A#	.	16f#
.	.	.	16ee
=186	=186	=186	=186
2r	8B	4r	16f#
.	.	.	16dd
.	8B	.	16f#
.	.	.	16dd
.	4r	8a#	16f#
.	.	.	16cc#
.	.	8a#	16f#
.	.	.	16cc#
=187	=187	=187	=187
4r	2r	8b	16f#
.	.	.	16dd
.	.	8b	16f#
.	.	.	16dd
8A#	.	4r	16f#
.	.	.	16ee
8A#	.	.	16f#
.	.	.	16ee
=188	=188	=188	=188
8B	4r	4r	16f#
.	.	.	16dd
8B	.	.	16f#
.	.	.	16dd
8F#	8e	8aa#	16f#
.	.	.	16cc#
8F#	8e	8aa#	16f#
.	.	.	16cc#
=189	=189	=189	=189
4BB	4d	4bb	4b
4BB	4B 4d	4b 4d	4bb 4b 4d
=190	=190	=190	=190
4BB	4B 4d	4b 4d	4bb 4b 4d
4r	4r	4r	4r
==	==	==	==
*-	*-	*-	*-
!!!RWG1: This file contains only pitch and duration data.
!!!RWG2: Transposing instruments are not transposed.
!!!RWG3: Spines may have incompatible meters.
!!!RWG4: Durations of rests and tied notes may be interpreted.
!!!RWG: Key is interpreted using the Humdrum key tool.
!!!GTL: 6 Quators ("Jungfernquartette")
!!!AFT: stage1
!!!END: 1997/04/15
!!!KEY: 1740201757
!!!EMD: Converted from MuseData to Humdrum Dec 16, 2000, by Andreas Kornstaedt using muse2kern.
!!!EMD: Manual editing by Craig Sapp, Nov 2001
